X:25
T:Bonaparte's March
T:Bonaparte Crossing the Rhine
T:Napoleon Crossing the Rhine
T:Listowel
R:hornpipe
H:See also #95
Z:id:hn-hornpipe-25
M:C|
K:Ador
EG|A2AB AGEG|cdec d2eg|aged cAGE|G2GA G2EG|
A2AB AGEG|cdec d2eg|aged cABG|A2AG A2:|
|:eg|abag e2ed|cdef g2eg|abag edcA|G2GA G2EG|
A2AB AGEG|cdec d2eg|aged cABG|A2AG A2:|

